X:1
T:Kalyana (répété)
C:Emer Mayock
D:Lunasa: Sé
R:Jig
M:6/8
Q:3/8=90
K:D
|: F2d cAF | A2B AFE | F2d cAd | cAd edc |
   F2d cAF | A2B AFE | Fdd dcd |1 efd cAG :|2 efd cBA
|: e2e ede | f2d dcd | e2e ede | fga fed |
   e2e ede | f2d fga | g2e edB |1 d2e dBd :|2 d2e dBG |
%
|: F2d cAF | A2B AFE | F2d cAd | cAd edc |
   F2d cAF | A2B AFE | Fdd dcd |1 efd cAG :|2 efd cBA
|: e2e ede | f2d dcd | e2e ede | fga fed |
   e2e ede | f2d fga | g2e edB |1 d2e dBd :|2 d2e dBG |
%
|: F2d cAF | A2B AFE | F2d cAd | cAd edc |
   F2d cAF | A2B AFE | Fdd dcd |1 efd cAG :|2 efd cBA
|: e2e ede | f2d dcd | e2e ede | fga fed |
   e2e ede | f2d fga | g2e edB |1 d2e dBd :|2 d2e dBG |
%
|: F2d cAF | A2B AFE | F2d cAd | cAd edc |
   F2d cAF | A2B AFE | Fdd dcd |1 efd cAG :|2 efd cBA
|: e2e ede | f2d dcd | e2e ede | fga fed |
   e2e ede | f2d fga | g2e edB |1 d2e dBd :|2 d2e dBG |
%
|: F2d cAF | A2B AFE | F2d cAd | cAd edc |
   F2d cAF | A2B AFE | Fdd dcd |1 efd cAG :|2 efd cBA
|: e2e ede | f2d dcd | e2e ede | fga fed |
   e2e ede | f2d fga | g2e edB |1 d2e dBd :|2 d2e dBG |
%
|: F2d cAF | A2B AFE | F2d cAd | cAd edc |
   F2d cAF | A2B AFE | Fdd dcd |1 efd cAG :|2 efd cBA
|: e2e ede | f2d dcd | e2e ede | fga fed |
   e2e ede | f2d fga | g2e edB |1 d2e dBd :|2 d2e dBG |

